X: 42159
T: Water Under The Keel
R: jig
M: 6/8
K: Dmajor
dAG FAD|DEG FAD|dAG FAD|EFG ABc|
dAG FAD|DEG FAD|dAF BAG|AEA D3:|
|:ecA dcd|ecA def|ecA ~d3|ecA GAE|
ecA dcA|ecA def|1 ecA ~d3|dcA GAE:|2 gfe fed|ecA GAE||

